X:1
T:Title
%%score [ ( 1 2 ) ( 3 4 ) ] { ( 5 6 ) | ( 7 8 ) }
L:1/8
Q:1/4=120
M:4/4
K:F
V:1 treble nm="Midi_74"
V:2 treble 
V:3 bass nm="Midi_74"
V:4 bass 
V:5 treble nm="Org."
V:6 treble 
V:7 bass 
V:8 bass 
V:1
 (c6 B2) | A4 (B3 A) | G8 || (A6 G2) | F4 F4 | B4 A4 |{A} G8 || (G6 A2) | B4 (A3 B) | c8 || %10
 (F6 G2) | A4 A4 |"^William Henry Havergal\n(1793-1870)" (B3 A) G4 | F8 |] %14
V:2
 (A6 G2) | F4 (G3 F) | E8 || (F6 E2) | D4 C4 | (D2 E2) F4 |{F} E8 || (G6 ^F2) | G4 (=F3 G) | A8 || %10
 (F6 E2) | F4 F4 | (G3 F) E4 | F8 |] %14
V:3
 C8 | C4 G,4 | C8 || A,8 | B,4 C4 | B,4 C4 | C8 || D8 | D4 D4 | C8 || C8 | C4 D4 | G,4 B,4 | A,8 |] %14
V:4
 F,8 | F,4 B,,4 | C,8 || F,8 | B,4 A,4 | G,4 F,4 | C,8 || (B,6 A,2) | G,4 D4 | A,8 || (A,6 G,2) | %11
 F,4 D,4 | B,,4 C,4 | F,8 |] %14
V:5
 c6 B2 | A4 B3 A | G8 || A6 G2 | F4 F4 | B4 A4 |{A} G8 || G6 [^FA]2 | B4 A3 B | c8 || F6 [EG]2 | %11
 A4 A4 | B3 A G4 | F8 |] %14
V:6
 A6 G2 | F4 G3 F | E8 || F6 E2 | D4 C4 | D2 E2 F4 |{F} [CE]8 || D8 | G4 =F3 G | A8 || C8 | F4 F4 | %12
 G3 F E4 | F8 |] %14
V:7
 x8 | x8 | x8 || x8 | x8 | x8 | x8 || x8 | x8 | x8 || x8 | C4 D4 | G,4 B,4 | A,8 |] %14
V:8
 F,8 | F,4 B,,4 | C,8 || F,8 | B,4 A,4 | G,4 F,4 | C,8 || B,6 A,2 | G,4 D4 | A,8 || A,6 G,2 | %11
 F,4 D,4 | B,,4 C,4 | F,8 |] %14

